cursor-pointer.svg

<svg fill="currentColor" viewBox="0 0 24 24"><path d="m13.75 10.19.63.13 4.17 2.08c.7.23 1.16.92 1.1 1.66v.26l-.9 6.12c-.06.43-.25.83-.6 1.11-.31.3-.72.45-1.15.45h-6.88c-.49 0-.94-.18-1.27-.53L2.86 15.5l.9-1c.24-.25.62-.39.98-.37h.29L9 15V4.5a2 2 0 0 1 2-2 2 2 0 0 1 2 2v5.69z"/></svg>

<svg  viewBox="0 0 24 24" fill="currentColor"><path  d="M13.75,10.19L14.38,10.32L18.55,12.4C19.25,12.63 19.71,13.32 19.65,14.06V14.19L19.65,14.32L18.75,20.44C18.69,20.87 18.5,21.27 18.15,21.55C17.84,21.85 17.43,22 17,22H10.12C9.63,22 9.18,21.82 8.85,21.47L2.86,15.5L3.76,14.5C4,14.25 4.38,14.11 4.74,14.13H5.03L9,15V4.5A2,2 0 0,1 11,2.5A2,2 0 0,1 13,4.5V10.19H13.75Z"/></svg>
